X:15135
T:Se7t de la Baie St Paul
M:4/4
K:D
f3ff2e2|d6cd|e2d2c2d2|B8|e3ee2d2|c6ef|g2e2dcBc|1d2c2B2A2:||2d6FG||ABAFD2FG|ABAFD2FG|A2d2c2d2|E6EF|GFED CDEF|GFED CDEF|G2B2A2C2|1D6FG:||2D8||
